static/img/kroki/12ad0bd8c223e1fc889f40d455078cbe.svg

<?xml version="1.0" encoding="us-ascii" standalone="no"?><svg xmlns="http://www.w3.org/2000/svg" xmlns:xlink="http://www.w3.org/1999/xlink" contentStyleType="text/css" height="252px" preserveAspectRatio="none" style="width:329px;height:252px;" version="1.1" viewBox="0 0 329 252" width="329px" zoomAndPan="magnify"><defs/><g><!--class azure_network_profile--><g id="elem_azure_network_profile"><rect codeLine="22" fill="#3D176E" height="39.7891" id="azure_network_profile" rx="2.5" ry="2.5" style="stroke:#000D19;stroke-width:0.5;" width="229" x="7" y="106.79"/><ellipse cx="22" cy="126.6845" fill="#ADD1B2" rx="11" ry="11" style="stroke:#181818;stroke-width:1.0;"/><path d="M24.9688,132.3252 Q24.3906,132.622 23.75,132.7627 Q23.1094,132.9189 22.4063,132.9189 Q19.9063,132.9189 18.5781,131.2783 Q17.2656,129.622 17.2656,126.497 Q17.2656,123.372 18.5781,121.7158 Q19.9063,120.0595 22.4063,120.0595 Q23.1094,120.0595 23.75,120.2158 Q24.4063,120.372 24.9688,120.6689 L24.9688,123.3877 Q24.3438,122.8095 23.75,122.5439 Q23.1563,122.2627 22.5313,122.2627 Q21.1875,122.2627 20.5,123.3408 Q19.8125,124.4033 19.8125,126.497 Q19.8125,128.5908 20.5,129.6689 Q21.1875,130.7314 22.5313,130.7314 Q23.1563,130.7314 23.75,130.4658 Q24.3438,130.1845 24.9688,129.6064 L24.9688,132.3252 Z " fill="#000000"/><text fill="#D9B8FF" font-family="Helvetica" font-size="17" lengthAdjust="spacing" textLength="187" x="41" y="132.5698">azure_network_profile</text></g><!--class azure_subnet--><g id="elem_azure_subnet"><rect codeLine="24" fill="#3D176E" height="39.7891" id="azure_subnet" rx="2.5" ry="2.5" style="stroke:#000D19;stroke-width:0.5;" width="154" x="128.5" y="7"/><ellipse cx="143.5" cy="26.8945" fill="#ADD1B2" rx="11" ry="11" style="stroke:#181818;stroke-width:1.0;"/><path d="M146.4688,32.5352 Q145.8906,32.832 145.25,32.9727 Q144.6094,33.1289 143.9063,33.1289 Q141.4063,33.1289 140.0781,31.4883 Q138.7656,29.832 138.7656,26.707 Q138.7656,23.582 140.0781,21.9258 Q141.4063,20.2695 143.9063,20.2695 Q144.6094,20.2695 145.25,20.4258 Q145.9063,20.582 146.4688,20.8789 L146.4688,23.5977 Q145.8438,23.0195 145.25,22.7539 Q144.6563,22.4727 144.0313,22.4727 Q142.6875,22.4727 142,23.5508 Q141.3125,24.6133 141.3125,26.707 Q141.3125,28.8008 142,29.8789 Q142.6875,30.9414 144.0313,30.9414 Q144.6563,30.9414 145.25,30.6758 Q145.8438,30.3945 146.4688,29.8164 L146.4688,32.5352 Z " fill="#000000"/><text fill="#D9B8FF" font-family="Helvetica" font-size="17" lengthAdjust="spacing" textLength="112" x="162.5" y="32.7798">azure_subnet</text></g><!--class azure_virtual_machine--><g id="elem_azure_virtual_machine"><rect codeLine="26" fill="#3D176E" height="39.7891" id="azure_virtual_machine" rx="2.5" ry="2.5" style="stroke:#000D19;stroke-width:0.5;" width="233" x="89" y="206.58"/><ellipse cx="104" cy="226.4745" fill="#ADD1B2" rx="11" ry="11" style="stroke:#181818;stroke-width:1.0;"/><path d="M106.9688,232.1152 Q106.3906,232.412 105.75,232.5527 Q105.1094,232.7089 104.4063,232.7089 Q101.9063,232.7089 100.5781,231.0683 Q99.2656,229.412 99.2656,226.287 Q99.2656,223.162 100.5781,221.5058 Q101.9063,219.8495 104.4063,219.8495 Q105.1094,219.8495 105.75,220.0058 Q106.4063,220.162 106.9688,220.4589 L106.9688,223.1777 Q106.3438,222.5995 105.75,222.3339 Q105.1563,222.0527 104.5313,222.0527 Q103.1875,222.0527 102.5,223.1308 Q101.8125,224.1933 101.8125,226.287 Q101.8125,228.3808 102.5,229.4589 Q103.1875,230.5214 104.5313,230.5214 Q105.1563,230.5214 105.75,230.2558 Q106.3438,229.9745 106.9688,229.3964 L106.9688,232.1152 Z " fill="#000000"/><text fill="#D9B8FF" font-family="Helvetica" font-size="17" lengthAdjust="spacing" textLength="191" x="123" y="232.3598">azure_virtual_machine</text></g><!--link azure_network_profile to azure_virtual_machine--><g id="link_azure_network_profile_azure_virtual_machine"><path codeLine="28" d="M138.1,147.01 C152.82,164.15 170.3109,184.5082 185.0309,201.6482 " fill="none" id="azure_network_profile-to-azure_virtual_machine" style="stroke:#1A83AF;stroke-width:2.0;"/><polygon fill="#1A83AF" points="188.94,206.2,186.1108,196.7662,185.6824,202.4068,180.0418,201.9784,188.94,206.2" style="stroke:#1A83AF;stroke-width:2.0;"/></g><!--link azure_subnet to azure_network_profile--><g id="link_azure_subnet_azure_network_profile"><path codeLine="29" d="M188.9,47.22 C174.18,64.36 156.6891,84.7182 141.9691,101.8582 " fill="none" id="azure_subnet-to-azure_network_profile" style="stroke:#1A83AF;stroke-width:2.0;"/><polygon fill="#1A83AF" points="138.06,106.41,146.9582,102.1884,141.3176,102.6168,140.8892,96.9762,138.06,106.41" style="stroke:#1A83AF;stroke-width:2.0;"/></g><!--link azure_subnet to azure_virtual_machine--><g id="link_azure_subnet_azure_virtual_machine"><path codeLine="30" d="M221.45,47.22 C232.86,62.38 247.27,84.56 253.5,106.79 C258.27,123.82 258.27,129.55 253.5,146.58 C247.27,168.81 236.4696,186.2072 225.0596,201.3572 " fill="none" id="azure_subnet-to-azure_virtual_machine" style="stroke:#1A83AF;stroke-width:2.0;"/><polygon fill="#1A83AF" points="221.45,206.15,230.0596,201.3672,224.458,202.156,223.6692,196.5544,221.45,206.15" style="stroke:#1A83AF;stroke-width:2.0;"/></g><!--SRC=[XP11Qy9048Nl_ee5pu9fQDLB8GhINgJKtagHINRMB4bsm-n4qTB_NgrjMJTHh_E-UU_Dv5gYmAhcdQYmIf5SpnNQr41GYOJ8RcUsj2JwIe6AHw4ujuPl0WkeK3nXkK7M6OJ4Mwwpmg1puiwJff0LQxADaITx9Z3k8A5XZvgLu5p2J3fj6BqoSfAEbGh9qBGVosZqW2tCaaJwHOR3eOmc8N8pwkhT_yHIxr54_jCMbh5LinNnGrrjUIIyagr3__IB7Lz0IctMujwRlPuwaK4wcozpa7Pxf1MKpeznZ8IMTpNEMbVXP2pLg1D-lWHdnyy9s3U4AuEyjLIiQh9AboW-UrzdkclI0z8QRpHn0-MgWYpNvhJMRJXuxqV9E4xc7uF7xkNUML877rZUv0F_Rm00]--></g></svg>

<svg xmlns="http://www.w3.org/2000/svg" width="329" height="252" viewBox="0 0 329 252"><rect width="229" height="39.789" x="7" y="106.79" fill="#3D176E" rx="2.5" ry="2.5" style="stroke:#000d19;stroke-width:.5"/><circle cx="22" cy="126.684" r="11" fill="#ADD1B2" style="stroke:#181818;stroke-width:1"/><path d="M24.969 132.325q-.578.297-1.219.438-.64.156-1.344.156-2.5 0-3.828-1.64-1.312-1.657-1.312-4.782t1.312-4.781q1.328-1.656 3.828-1.656.703 0 1.344.156.656.156 1.219.453v2.719q-.625-.579-1.219-.844-.594-.281-1.219-.281-1.343 0-2.031 1.078-.687 1.062-.687 3.156t.687 3.172q.688 1.062 2.031 1.062.625 0 1.219-.265.594-.281 1.219-.86z"/><text x="41" y="132.57" fill="#D9B8FF" font-family="Helvetica" font-size="17" textLength="187">azure_network_profile</text><rect width="154" height="39.789" x="128.5" y="7" fill="#3D176E" rx="2.5" ry="2.5" style="stroke:#000d19;stroke-width:.5"/><circle cx="143.5" cy="26.895" r="11" fill="#ADD1B2" style="stroke:#181818;stroke-width:1"/><path d="M146.469 32.535q-.578.297-1.219.438-.64.156-1.344.156-2.5 0-3.828-1.64-1.312-1.657-1.312-4.782t1.312-4.781q1.328-1.656 3.828-1.656.703 0 1.344.156.656.156 1.219.453v2.719q-.625-.578-1.219-.844-.594-.281-1.219-.281-1.344 0-2.031 1.078-.687 1.062-.687 3.156t.687 3.172q.688 1.062 2.031 1.062.625 0 1.219-.265.594-.281 1.219-.86z"/><text x="162.5" y="32.78" fill="#D9B8FF" font-family="Helvetica" font-size="17" textLength="112">azure_subnet</text><rect width="233" height="39.789" x="89" y="206.58" fill="#3D176E" rx="2.5" ry="2.5" style="stroke:#000d19;stroke-width:.5"/><circle cx="104" cy="226.475" r="11" fill="#ADD1B2" style="stroke:#181818;stroke-width:1"/><path d="M106.969 232.115q-.578.297-1.219.438-.64.156-1.344.156-2.5 0-3.828-1.64-1.312-1.657-1.312-4.782t1.312-4.781q1.328-1.656 3.828-1.656.703 0 1.344.156.656.156 1.219.453v2.719q-.625-.578-1.219-.844-.594-.281-1.219-.281-1.344 0-2.031 1.078-.687 1.062-.687 3.156t.687 3.172q.688 1.062 2.031 1.062.625 0 1.219-.265.594-.281 1.219-.86z"/><text x="123" y="232.36" fill="#D9B8FF" font-family="Helvetica" font-size="17" textLength="191">azure_virtual_machine</text><path fill="none" d="M138.1 147.01c14.72 17.14 32.21 37.498 46.93 54.638" style="stroke:#1a83af;stroke-width:2"/><path fill="#1A83AF" d="m188.94 206.2-2.83-9.434-.428 5.64-5.64-.428z" style="stroke:#1a83af;stroke-width:2"/><path fill="none" d="M188.9 47.22c-14.72 17.14-32.21 37.498-46.93 54.638" style="stroke:#1a83af;stroke-width:2"/><path fill="#1A83AF" d="m138.06 106.41 8.898-4.222-5.64.429-.429-5.64z" style="stroke:#1a83af;stroke-width:2"/><path fill="none" d="M221.45 47.22c11.41 15.16 25.82 37.34 32.05 59.57 4.77 17.03 4.77 22.76 0 39.79-6.23 22.23-17.03 39.627-28.44 54.777" style="stroke:#1a83af;stroke-width:2"/><path fill="#1A83AF" d="m221.45 206.15 8.61-4.783-5.602.789-.789-5.602z" style="stroke:#1a83af;stroke-width:2"/></svg>
